assets/twitter.svg

<svg height="512pt" viewBox="0 0 512 512" width="512pt" xmlns="http://www.w3.org/2000/svg"><path d="m256 0c-141.363281 0-256 114.636719-256 256s114.636719 256 256 256 256-114.636719 256-256-114.636719-256-256-256zm116.886719 199.601562c.113281 2.519532.167969 5.050782.167969 7.59375 0 77.644532-59.101563 167.179688-167.183594 167.183594h.003906-.003906c-33.183594 0-64.0625-9.726562-90.066406-26.394531 4.597656.542969 9.277343.8125 14.015624.8125 27.53125 0 52.867188-9.390625 72.980469-25.152344-25.722656-.476562-47.410156-17.464843-54.894531-40.8125 3.582031.6875 7.265625 1.0625 11.042969 1.0625 5.363281 0 10.558593-.722656 15.496093-2.070312-26.886718-5.382813-47.140624-29.144531-47.140624-57.597657 0-.265624 0-.503906.007812-.75 7.917969 4.402344 16.972656 7.050782 26.613281 7.347657-15.777343-10.527344-26.148437-28.523438-26.148437-48.910157 0-10.765624 2.910156-20.851562 7.957031-29.535156 28.976563 35.554688 72.28125 58.9375 121.117187 61.394532-1.007812-4.304688-1.527343-8.789063-1.527343-13.398438 0-32.4375 26.316406-58.753906 58.765625-58.753906 16.902344 0 32.167968 7.144531 42.890625 18.566406 13.386719-2.640625 25.957031-7.53125 37.3125-14.261719-4.394531 13.714844-13.707031 25.222657-25.839844 32.5 11.886719-1.421875 23.214844-4.574219 33.742187-9.253906-7.863281 11.785156-17.835937 22.136719-29.308593 30.429687zm0 0"/></svg>

<svg width="512" height="512" viewBox="0 0 512 512" fill="none" xmlns="http://www.w3.org/2000/svg">
<path d="M256 0C114.637 0 0 114.637 0 256C0 397.363 114.637 512 256 512C397.363 512 512 397.363 512 256C512 114.637 397.363 0 256 0ZM372.887 199.602C373 202.121 373.055 204.652 373.055 207.195C373.055 284.84 313.953 374.375 205.871 374.379H205.875H205.871C172.688 374.379 141.809 364.652 115.805 347.984C120.402 348.527 125.082 348.797 129.82 348.797C157.352 348.797 182.688 339.406 202.801 323.645C177.078 323.168 155.391 306.18 147.906 282.832C151.488 283.52 155.172 283.895 158.949 283.895C164.312 283.895 169.508 283.172 174.445 281.824C147.559 276.441 127.305 252.68 127.305 224.227C127.305 223.961 127.305 223.723 127.312 223.477C135.23 227.879 144.285 230.527 153.926 230.824C138.148 220.297 127.777 202.301 127.777 181.914C127.777 171.148 130.688 161.062 135.734 152.379C164.711 187.934 208.016 211.316 256.852 213.773C255.844 209.469 255.324 204.984 255.324 200.375C255.324 167.938 281.641 141.621 314.09 141.621C330.992 141.621 346.258 148.766 356.98 160.188C370.367 157.547 382.938 152.656 394.293 145.926C389.898 159.641 380.586 171.148 368.453 178.426C380.34 177.004 391.668 173.852 402.195 169.172C394.332 180.957 384.359 191.309 372.887 199.602V199.602Z" fill="#FA871B"/>
</svg>
